docs/.gitbook/assets/icon-arrow-left-circle-16@dark.svg

<svg width="32" height="32" viewBox="0 0 16 16" fill="none" xmlns="http://www.w3.org/2000/svg">
<rect x="0" y="0" width="16" height="16" fill="#181c1f"/>
<path fill-rule="evenodd" clip-rule="evenodd" d="M8 2.5C4.96243 2.5 2.5 4.96243 2.5 8C2.5 11.0376 4.96243 13.5 8 13.5C11.0376 13.5 13.5 11.0376 13.5 8C13.5 4.96243 11.0376 2.5 8 2.5ZM1 8C1 4.13401 4.13401 1 8 1C11.866 1 15 4.13401 15 8C15 11.866 11.866 15 8 15C4.13401 15 1 11.866 1 8ZM7.80747 5.24828C8.08456 5.55616 8.05961 6.03038 7.75172 6.30747L6.70447 7.25L11.25 7.25C11.6642 7.25 12 7.58579 12 8C12 8.41421 11.6642 8.75 11.25 8.75L6.70447 8.75L7.75172 9.69253C8.05961 9.96962 8.08456 10.4438 7.80747 10.7517C7.53038 11.0596 7.05616 11.0846 6.74828 10.8075L4.24828 8.55747C4.09024 8.41524 4 8.21262 4 8C4 7.78739 4.09024 7.58476 4.24828 7.44253L6.74828 5.19253C7.05616 4.91544 7.53038 4.94039 7.80747 5.24828Z" fill="#fff"/>
</svg>

<svg xmlns="http://www.w3.org/2000/svg" width="32" height="32" fill="none" viewBox="0 0 16 16"><path fill="#181c1f" d="M0 0h16v16H0z"/><path fill="#fff" fill-rule="evenodd" d="M8 2.5a5.5 5.5 0 1 0 0 11 5.5 5.5 0 0 0 0-11M1 8a7 7 0 1 1 14 0A7 7 0 0 1 1 8m6.807-2.752a.75.75 0 0 1-.055 1.06l-1.048.942h4.546a.75.75 0 0 1 0 1.5H6.704l1.048.943a.75.75 0 1 1-1.004 1.114l-2.5-2.25a.75.75 0 0 1 0-1.114l2.5-2.25a.75.75 0 0 1 1.06.055" clip-rule="evenodd"/></svg>
